!!!COM: Richard Strauss
!!!CNT: Deutscher
!!!TXO: Deutsche 
!!!OTL: Winternacht
!!!OPS: Opus 15
!!!ONM: No. 2
!!!LYR: A.F. von Schack
!!!ENC: Brian Bice
!!!YOR: Lieder, Complete Edition, vol. 1
!!!ODT: 1886
!!NB: Vocal melody and text only encoded.
**kern	**silbe
*clefG2	*
*k[b-e-]	*
*M3/4	*
=4	=4
4r	.
4r	.
{4d	{Mit
=5	=5
4g	Re-
4g	-gen
8r	.
8g	und
=6	=6
(4cc	Sturm-
4b-)	|
4a	-ge-
=7	=7
2.g	-brau-
=8	=8
4c}	-se}
4r	.
4r	.
=9	=9
{12g	{sei
12a	mir
12b-	will-
[2dd	-kom-
=10	=10
4dd]	|
4b-	-men,
4g	De-
=11	=11
4.f	-zem-
8g	-ber-
4f}	-mond,}
=12	=12
4r	.
4r	.
{4b-	{und
=13	=13
4ee-	fu2hr'
4dd	mich
4cc	den
=14	=14
2f	Weg
4f	zum
=15	=15
4b-	trau-
4a	-li-
4g	-chen
=16	=16
2d	Hau-
4d}	-se,}
=17	=17
{4b-	{wo
4a	mei-
8g	-ne
8g	ge-
=18	=18
(4cc	-lieb-
4b-)	|
4a	-te
=19	=19
2g	Her-
4en	-rin
=20	=20
2.d}	wohnt.}
=25	=25
{4dd	{Nie
4cc	hab'
8b-	ich
8b-	die
=26	=26
4ee-	Blu2-
4b-	-te
4cc	des
=27	=27
2.dd-	Mai-
=28	=28
4d-}	-en,}
4r	.
{4d-	{den
=29	=29
4.d-	blau-
8e-	-en-
4f	-den
=30	=30
4b-	Him-
4a-	-mel,
4a-	den
=31	=31
12g	bli-
12a-	-tzen-
12b-	-den
4dd-}	Tau}
{4cc	{so
=32	=32
4b-	fro2h-
4a-	-lich
4g	ge-
=33	=33
2.cc	-gru2sst,
=34	=34
4r	.
4r	.
4g	wie
=35	=35
2cc	heu-
4cc	-te
=36	=36
4r	.
4r	.
4g	dein
=37	=37
4cc	Schnei-
4cc}	-en,}
{4cc	{dein
=38	=38
12ee-	Ne-
12dd	-bel-
12cc	-ge-
4b-	-brau2
4a	und
=39	=39
[2.dd	Wol-
=40	=40
2dd]	|
4d	-ken-
=41	=41
[2.d	-grau;
=42	=42
4d]}	|}
4r	.
4r	.
=43	=43
*k[f#]	*
{4b	{denn
4b	durch
4b	das
=44	=44
4ee	Flok-
4dd	-ken-
4b	-ge-
=45	=45
2.g	-trie-
=46	=46
4g}	-be,}
4r	.
4r	.
=47	=47
{4ee	{scho2-
4a	-ner,
4a	als
=48	=48
2cc	je-
4b	-der
=49	=49
2a	Lenz
4b	ge-
=50	=50
2a}	-lacht,}
4r	.
=51	=51
{4dd	{leuch-
4dd	-tet
4dd	und
=52	=52
2dd	blu2ht
4dd	der
=53	=53
4dd	Fru2h-
4cc	-ling
4b	der
=54	=54
4dd	Lie-
4cc}	-be}
{4a	{mir
=55	=55
2g	heim-
(8b	-lich
8a)	|
=56	=56
4g	nun
4g	in
4g	der
=57	=57
[2g	Win-
8g]	|
8f	-ter-
=58	=58
2f#}	-nacht,}
4r	.
=59	=59
{4b	{leuch-
4b	-tet
4b	und
=60	=60
(4ff#	blu2ht
4ee)	|
4dd	der
=61	=61
4cc	Fru2h-
4b	-ling
4a	der
=62	=62
2ee	Lie-
4ee-}	-be}
=63	=63
4r	.
4r	.
{4dd	{mir
=64	=64
2cc#	heim-
4a	-lich
=65	=65
2.g	nun
=66	=66
4r	.
4e	in
4f#	der
=67	=67
[2b	Win-
8b]	|
8g	-ter-
=68	=68
2.d}	-nacht.}
*-	*-
